color/wan.svg

<!-- Generated by IcoMoon.io -->
<svg version="1.1" xmlns="http://www.w3.org/2000/svg" width="32" height="32" viewBox="0 0 32 32">
<title>wan</title>
<path fill="#136aad" d="M32 16c0 8.837-7.163 16-16 16s-16-7.163-16-16c0-8.837 7.163-16 16-16s16 7.163 16 16z"></path>
<path fill="#fff" d="M7 11.090l2.667 1.13v6.353l6.333-3.787 6.394 3.787v-6.353l2.606-1.13v11.974l-9-5.315-9 5.315v-11.974zM7.303 10.601l8.697-5.101 8.758 5.101-2.364 0.978-6.394-3.696-6.333 3.696-2.364-0.978zM9.182 22.422l1.97-1.13 4.878 2.825 4.818-2.825 2.030 1.13-6.848 4.078-6.848-4.078z"></path>
</svg>

<svg xmlns="http://www.w3.org/2000/svg" width="32" height="32" viewBox="0 0 32 32"><g fill="none" fill-rule="evenodd"><circle cx="16" cy="16" r="16" fill="#136AAD"/><path fill="#FFF" d="M7 11.09l2.667 1.13v6.353L16 14.786l6.394 3.787V12.22L25 11.09v11.974l-9-5.315-9 5.315V11.09zm.303-.489L16 5.5l8.758 5.101-2.364.978L16 7.883l-6.333 3.696-2.364-.978zm1.879 11.821l1.97-1.13 4.878 2.825 4.818-2.825 2.03 1.13L16.03 26.5l-6.848-4.078z"/></g></svg>
